src/img/logo/raptory-logo.svg

<svg width="160" height="30" viewBox="0 0 160 30" fill="none" xmlns="http://www.w3.org/2000/svg">
<path d="M0.931034 7.60473C3.65517 6.13319 6.58621 5.39742 9.72414 5.39742C12.1609 5.39742 14.1667 5.89151 15.7414 6.8797C17.3276 7.86788 18.1207 9.1246 18.1207 10.6498C18.1207 11.8958 17.6034 13.0021 16.569 13.9689C15.5345 14.9248 14.1207 15.6176 12.3276 16.0473C13.1207 18.0881 14.1954 20.0752 15.5517 22.0086C16.9195 23.942 18.2874 25.4243 19.6552 26.4554L19.3966 26.536C17.6839 27.0838 16.0057 27.8571 14.3621 28.8561L14.1034 29.0172L14.0172 28.5016C13.2816 24.3448 12.2529 20.8217 10.931 17.9323L10.8621 17.7712C10.069 18.1149 9.00575 18.3888 7.67241 18.5929L7.53448 18.609V24.6348L10.569 27.6638H1.65517L1.37931 27.2288H9.58621L7.08621 24.7476V18.2546L7.44828 18.2062C8.75862 18.0773 9.85632 17.8357 10.7414 17.4812C10.6724 17.3523 10.6322 17.2718 10.6207 17.2395L10.4483 16.7723C10.4368 16.7401 10.408 16.6756 10.3621 16.5789C9.64943 16.7723 8.3046 16.9817 6.32759 17.2073L6.13793 17.2395V24.4253L8.10345 26.3426H0.482759L2.72414 24.4253V19.0118L2.58621 19.0279C1.91954 19.1676 1.31609 19.3233 0.775862 19.4952L0.637931 19.5435L0.482759 19.2213C0.988506 19.0387 1.38506 18.9151 1.67241 18.8507L2.58621 18.6412L2.72414 18.609V17.7712C2.04598 17.7712 1.20115 17.9108 0.189655 18.1901L0 18.2546C0.0229885 18.1042 0.137931 17.7551 0.344828 17.2073C0.367816 17.1643 0.448276 16.9227 0.586207 16.4823C0.597701 16.4501 0.614942 16.4017 0.637931 16.3373C1.15517 16.3695 1.55747 16.3856 1.84483 16.3856C2.15517 16.3856 2.44253 16.3695 2.7069 16.3373V8.41031C2.17816 8.10956 1.63218 7.85714 1.06897 7.65306L0.931034 7.60473ZM6.13793 7.18582V15.87C6.47126 15.87 6.78736 15.8432 7.08621 15.7895V7.86251C7.71839 7.7014 8.47701 7.62084 9.36207 7.62084C11.6034 7.62084 13.1264 8.30827 13.931 9.68314C13.0805 9.03867 12.3333 8.59828 11.6897 8.36198C11.046 8.11493 10.2759 7.99141 9.37931 7.99141C8.67816 7.99141 8.06322 8.05585 7.53448 8.18475V15.7895L7.72414 15.7573C9.98851 15.3706 11.6667 14.7637 12.7586 13.9366C13.8621 13.0988 14.4138 12.014 14.4138 10.6821C14.4138 9.4898 13.9195 8.50698 12.931 7.73362C11.9425 6.94952 10.6954 6.55747 9.18966 6.55747C7.98276 6.55747 6.96552 6.76692 6.13793 7.18582ZM14.4655 16.8528C15.1897 19.0655 16.4713 21.2299 18.3103 23.3459C19.4598 24.667 20.9138 25.8539 22.6724 26.9066C20.0402 27.5618 17.569 28.5607 15.2586 29.9033L15.1034 30L14.7586 29.7422C16.954 28.3996 19.2931 27.4114 21.7759 26.7777C18.4655 24.7154 15.8621 21.4178 13.9655 16.8851L13.8621 16.6112C17.3793 15.3652 19.1379 13.464 19.1379 10.9076C19.1379 9.85499 18.6839 8.70569 17.7759 7.45972C18.9368 8.44791 19.5172 9.70462 19.5172 11.2299C19.5172 13.7003 17.8333 15.5747 14.4655 16.8528Z" fill="#4E9F3D"/>
<path d="M38.5345 5.67132L36.7414 7.5725L39.569 14.5972L40.2586 14.2428L37.7069 7.89474L39.5345 5.92911L39.9828 6.10634L38.2414 7.99141L40.6552 14.0011C40.7931 13.9044 40.8736 13.8453 40.8965 13.8238L41.4655 13.3727C41.8103 13.1149 42.0287 12.9323 42.1207 12.8249C42.4195 14.0494 42.8793 15.145 43.5 16.1117C43.1667 16.0902 42.9253 16.0795 42.7759 16.0795C41.6839 16.0795 40.8851 16.2406 40.3793 16.5628L43.5 24.4737L46.0862 26.3426H37.3793L39.7586 24.4737L37.8448 19.7691C36.5805 20.9613 35.6092 22.0945 34.931 23.1686L34.5345 23.072C35.2126 22.0193 36.2241 20.8432 37.569 19.5435L37.7069 19.3824L37.3793 18.6735C36.0115 19.7368 34.8793 20.9721 33.9828 22.3792L33.6724 21.9119C33.0747 21.0204 32.3103 20.0054 31.3793 18.8668L31.2069 18.6735C30.3218 20.5102 29.8793 22.0032 29.8793 23.1525C29.8793 23.8292 30 24.4039 30.2414 24.8765C30.4943 25.3383 31.092 26.1171 32.0345 27.2127C32.1149 27.3093 32.2414 27.4597 32.4138 27.6638H23.1034L22.7586 27.2288H31.5345L31.2414 26.8904C30.4828 26.0311 29.9828 25.3652 29.7414 24.8926C29.5115 24.4092 29.3966 23.8453 29.3966 23.2009C29.3966 22.1053 29.8736 20.4726 30.8276 18.3029L30.069 17.5618C29.9195 17.9055 29.7299 18.4103 29.5 19.0763L28.931 20.7197C28.6207 21.6004 28.4655 22.3308 28.4655 22.9108C28.4655 23.5124 28.5747 24.0118 28.7931 24.4092C29.0115 24.8067 29.4713 25.3491 30.1724 26.0365C30.2414 26.101 30.3448 26.203 30.4828 26.3426H21.8621C23.5057 25.5478 24.8046 24.4791 25.7586 23.1364C26.7241 21.7938 27.6782 19.7207 28.6207 16.9173L28.6897 16.6917C28.0805 16.2084 27.2011 15.913 26.0517 15.8056C26.6839 14.9248 27.1724 14.0064 27.5172 13.0505C27.6782 13.1901 27.7759 13.276 27.8103 13.3083L28.5862 13.985C28.8506 14.2213 29.1667 14.4629 29.5345 14.71L29.8448 14.0011L29.6379 13.84C29.0632 13.3673 28.5805 12.986 28.1897 12.696L28.0345 12.5832L28.3103 12.2288C28.9195 12.6047 29.5057 13.0397 30.069 13.5338L32.4138 7.50806L30.5862 5.67132H38.5345ZM34.2759 10.8432L32.3793 15.5156C32.4828 15.623 32.5402 15.6874 32.5517 15.7089L33.2586 16.4501C33.6379 16.8367 34.1207 17.4382 34.7069 18.2546L34.8793 18.4962C35.3736 17.9162 35.9598 17.3416 36.6379 16.7723L34.2759 10.8432ZM33.5 8.97422L30.7586 15.7411C31.6322 16.5789 32.3851 17.406 33.0172 18.2223L33.8103 19.2535C33.8218 19.2642 33.8793 19.334 33.9828 19.4629C34.0862 19.3663 34.1437 19.3072 34.1552 19.2857L34.3965 19.0118C34.431 18.9689 34.4943 18.899 34.5862 18.8024C33.7816 17.6423 32.8448 16.5951 31.7759 15.6606L33.9828 10.2148L33.5 8.97422ZM43.6379 13.5983C43.8908 14.565 44.523 15.8915 45.5345 17.5779C45.2816 17.5457 45.1379 17.5295 45.1034 17.5295L43.7069 17.4168C43.0747 17.3631 42.6149 17.3362 42.3276 17.3362C42.2816 17.3362 42.1667 17.3416 41.9828 17.3523L44.8621 24.4898L48.7069 27.6638H38.7241L38.3965 27.2288H47.5517L44.4483 24.667L41.3793 17.0784C41.7701 16.9817 42.2184 16.9334 42.7241 16.9334C43.3448 16.9334 44.0345 16.9817 44.7931 17.0784L44.5862 16.724C43.8506 15.4565 43.3563 14.3126 43.1034 13.2922L43.6379 13.5983Z" fill="#4E9F3D"/>
<path d="M50.2586 5.67132H58C61.2874 5.67132 63.6264 6.0956 65.0172 6.94415C66.7874 8.00752 67.6724 9.48443 67.6724 11.3749C67.6724 12.5242 67.3333 13.5231 66.6552 14.3716C65.977 15.2202 65.0287 15.8324 63.8103 16.2084C62.592 16.5843 60.6552 16.7723 58 16.7723H55.8793V24.5704L57.9828 26.3426H49.9655L52.3621 24.4576V17.9968C52.2241 17.986 52.1264 17.9807 52.069 17.9807C51.2414 17.9807 50.4483 18.1472 49.6897 18.4801L49.5345 18.1901C50.3046 17.782 50.9943 17.5779 51.6034 17.5779H52.2241L52.3621 17.5618V16.7723C52.0977 16.7401 51.9195 16.724 51.8276 16.724C50.5977 16.724 49.6149 17.0032 48.8793 17.5618L48.7069 17.3201C49.408 16.1171 50.5345 15.5156 52.0862 15.5156H52.3621V7.62084L50.2586 5.67132ZM55.8793 7.33083V15.4028H56.1034L56.5517 15.4189C56.5977 15.4189 56.6724 15.4135 56.7759 15.4028V8.21697H58.6724C60.1437 8.21697 61.1782 8.34049 61.7759 8.58754C62.3851 8.82384 62.9023 9.32331 63.3276 10.0859C62.9023 9.53813 62.3678 9.15682 61.7241 8.942C61.092 8.71643 60.1954 8.60365 59.0345 8.60365H57.2586V15.4028C59.5345 15.4028 61.2011 15.0913 62.2586 14.4683C63.3276 13.8453 63.8621 12.8679 63.8621 11.536C63.8621 10.043 63.3851 8.95811 62.431 8.28142C61.4885 7.60473 59.9655 7.26638 57.8621 7.26638C57.3218 7.26638 56.6609 7.28786 55.8793 7.33083ZM66.7931 7.39527C67.4943 7.71751 68.0575 8.28679 68.4828 9.10312C68.908 9.9087 69.1207 10.8271 69.1207 11.8582C69.1207 14.189 68.1552 15.8647 66.2241 16.8851C64.7644 17.6584 62.2701 18.0451 58.7414 18.0451C58.1552 18.0451 57.6609 18.0344 57.2586 18.0129V24.667L59.9655 27.6638H51.3276L50.8621 27.2288H58.9828L56.7759 24.8443V17.5779C57.7759 17.6316 58.8391 17.6584 59.9655 17.6584C62.931 17.6584 65.1322 17.1697 66.569 16.1923C68.0057 15.2148 68.7241 13.7164 68.7241 11.6971C68.7241 10.8593 68.5862 10.1343 68.3103 9.52202C68.0345 8.89903 67.5287 8.19012 66.7931 7.39527Z" fill="#4E9F3D"/>
<path d="M89.4138 5.67132C89.3103 5.85392 89.2414 5.97744 89.2069 6.04189L88.0345 7.9753C87.6322 8.66273 87.2586 9.52202 86.9138 10.5532L86.8793 10.6337L86.7069 10.5209L86.6552 10.3115C86.3218 9.087 85.8448 8.23845 85.2241 7.76584C84.6149 7.29323 83.6782 7.05693 82.4138 7.05693C81.8966 7.05693 81.3793 7.07841 80.8621 7.12138H80.6552V24.5865L82.6897 26.3426H74.8103L77.2241 24.4576V8.42642L76 8.41031C74.8161 8.41031 73.9713 8.6305 73.4655 9.07089C72.9713 9.50054 72.6782 10.2632 72.5862 11.3588H72.1379C72.2644 10.102 72.6092 9.22664 73.1724 8.73255C73.7471 8.23845 74.6897 7.99141 76 7.99141L77.0345 8.00752H77.2241V7.21805C76.6379 7.1536 76.0805 7.12138 75.5517 7.12138C74.069 7.12138 73 7.40601 72.3448 7.9753C71.6897 8.53383 71.3276 9.48443 71.2586 10.8271H71.0517C70.5575 9.33405 69.7931 7.66917 68.7586 5.83244L68.6552 5.67132H89.4138ZM90.5 6.68636C89.7069 7.63158 88.8736 9.19979 88 11.391L87.931 11.5521L87.5517 11.246L87.6034 11.101C88.454 8.87755 89.2759 7.33083 90.069 6.46079L90.1552 6.36412L90.5 6.68636ZM85.8966 9.19979C85.0115 8.66273 83.977 8.3942 82.7931 8.3942C82.5287 8.3942 82.2529 8.41031 81.9655 8.44254L82.0345 24.6348L84.7759 27.6638H75.9655L75.569 27.2288H83.8276L81.5172 24.7637V7.9753L82.4483 7.95918C83.5632 7.95918 84.3506 8.04511 84.8103 8.21697C85.2816 8.37809 85.6437 8.70569 85.8966 9.19979Z" fill="#4E9F3D"/>
<path d="M104 9.26423L103.707 9.10312C102.603 8.53383 101.592 8.24919 100.672 8.24919C97.6494 8.24919 96.1379 11.0258 96.1379 16.5789C96.1379 20.6391 97.0747 23.3298 98.9483 24.6509L98.7931 24.812C97.6437 24.0494 96.8218 23.0505 96.3276 21.8153C95.8448 20.5693 95.6034 18.8883 95.6034 16.7723C95.6034 10.811 97.2816 7.83029 100.638 7.83029C102.167 7.83029 103.287 8.30827 104 9.26423ZM100.31 5.46187C103.103 5.46187 105.333 6.45005 107 8.42642C108.678 10.4028 109.517 13.0451 109.517 16.3534C109.517 19.4791 108.69 21.971 107.034 23.8292C105.391 25.6874 103.178 26.6165 100.397 26.6165C98.2011 26.6165 96.2471 25.9613 94.5345 24.6509C92.0172 22.7175 90.7586 19.855 90.7586 16.0634C90.7586 12.8195 91.6207 10.2417 93.3448 8.32975C95.069 6.41783 97.3908 5.46187 100.31 5.46187ZM100.31 6.84748C96.4253 6.84748 94.4828 10.0376 94.4828 16.4178C94.4828 22.3147 96.3966 25.2632 100.224 25.2632C102.006 25.2632 103.362 24.4844 104.293 22.927C105.224 21.3588 105.69 19.0709 105.69 16.0634C105.69 12.6584 105.241 10.2846 104.345 8.942C103.402 7.54565 102.057 6.84748 100.31 6.84748ZM105.81 6.28357C107.454 7.0247 108.753 8.29216 109.707 10.0859C110.661 11.8797 111.138 13.9527 111.138 16.305C111.138 19.7637 110.195 22.5564 108.31 24.6831C106.437 26.8099 103.971 27.8733 100.914 27.8733C98.9598 27.8733 97.1322 27.2556 95.431 26.0204V25.9398C96.8563 26.9173 98.6437 27.406 100.793 27.406C103.678 27.406 106.046 26.391 107.897 24.3609C109.747 22.3308 110.672 19.7368 110.672 16.5789C110.672 14.2266 110.247 12.1697 109.397 10.4082C108.557 8.64662 107.362 7.33083 105.81 6.46079V6.28357Z" fill="#4E9F3D"/>
<path d="M113.483 7.60473C116.207 6.13319 119.138 5.39742 122.276 5.39742C124.713 5.39742 126.718 5.89151 128.293 6.8797C129.879 7.86788 130.672 9.1246 130.672 10.6498C130.672 11.8958 130.155 13.0021 129.121 13.9689C128.086 14.9248 126.672 15.6176 124.879 16.0473C125.672 18.0881 126.747 20.0752 128.103 22.0086C129.471 23.942 130.839 25.4243 132.207 26.4554L131.948 26.536C130.236 27.0838 128.557 27.8571 126.914 28.8561L126.655 29.0172L126.569 28.5016C125.833 24.3448 124.805 20.8217 123.483 17.9323L123.414 17.7712C122.621 18.1149 121.557 18.3888 120.224 18.5929L120.086 18.609V24.6348L123.121 27.6638H114.207L113.931 27.2288H122.138L119.638 24.7476V18.2546L120 18.2062C121.31 18.0773 122.408 17.8357 123.293 17.4812C123.224 17.3523 123.184 17.2718 123.172 17.2395L123 16.7723C122.989 16.7401 122.96 16.6756 122.914 16.5789C122.201 16.7723 120.856 16.9817 118.879 17.2073L118.69 17.2395V24.4253L120.655 26.3426H113.034L115.276 24.4253V19.0118L115.138 19.0279C114.471 19.1676 113.868 19.3233 113.328 19.4952L113.19 19.5435L113.034 19.2213C113.54 19.0387 113.937 18.9151 114.224 18.8507L115.138 18.6412L115.276 18.609V17.7712C114.598 17.7712 113.753 17.9108 112.741 18.1901L112.552 18.2546C112.575 18.1042 112.69 17.7551 112.897 17.2073C112.92 17.1643 113 16.9227 113.138 16.4823C113.149 16.4501 113.167 16.4017 113.19 16.3373C113.707 16.3695 114.109 16.3856 114.397 16.3856C114.707 16.3856 114.994 16.3695 115.259 16.3373V8.41031C114.73 8.10956 114.184 7.85714 113.621 7.65306L113.483 7.60473ZM118.69 7.18582V15.87C119.023 15.87 119.339 15.8432 119.638 15.7895V7.86251C120.27 7.7014 121.029 7.62084 121.914 7.62084C124.155 7.62084 125.678 8.30827 126.483 9.68314C125.632 9.03867 124.885 8.59828 124.241 8.36198C123.598 8.11493 122.828 7.99141 121.931 7.99141C121.23 7.99141 120.615 8.05585 120.086 8.18475V15.7895L120.276 15.7573C122.54 15.3706 124.218 14.7637 125.31 13.9366C126.414 13.0988 126.966 12.014 126.966 10.6821C126.966 9.4898 126.471 8.50698 125.483 7.73362C124.494 6.94952 123.247 6.55747 121.741 6.55747C120.534 6.55747 119.517 6.76692 118.69 7.18582ZM127.017 16.8528C127.741 19.0655 129.023 21.2299 130.862 23.3459C132.011 24.667 133.466 25.8539 135.224 26.9066C132.592 27.5618 130.121 28.5607 127.81 29.9033L127.655 30L127.31 29.7422C129.506 28.3996 131.845 27.4114 134.328 26.7777C131.017 24.7154 128.414 21.4178 126.517 16.8851L126.414 16.6112C129.931 15.3652 131.69 13.464 131.69 10.9076C131.69 9.85499 131.236 8.70569 130.328 7.45972C131.489 8.44791 132.069 9.70462 132.069 11.2299C132.069 13.7003 130.385 15.5747 127.017 16.8528Z" fill="#4E9F3D"/>
<path d="M159.224 0L159.328 0.128894L159.155 0.306122C157.098 2.30397 155.402 4.33405 154.069 6.39635C153.552 7.18045 153.184 7.73899 152.966 8.07197L146.552 17.6584V24.1998L149.052 26.3426H140.655L143.138 24.1998V17.6584L139 11.7132L138.103 10.3759C137.287 9.18367 136.615 8.31364 136.086 7.76584C135.569 7.21805 134.799 6.56821 133.776 5.81633L133.586 5.67132H142.293L140.155 7.74973L145.897 15.8378L146.448 15.0161L141.328 7.74973L143.138 6.13856L143.5 6.39635L141.931 7.74973L146.707 14.6294L150.569 8.942C151.684 7.28786 152.241 6.05263 152.241 5.23631C152.241 4.54887 151.753 3.76477 150.776 2.884C154.121 2.13212 156.868 1.20301 159.017 0.0966702L159.224 0ZM160 0.966702V1.62728L159.828 1.7884C158.862 2.64769 158.029 3.50698 157.328 4.36627C156.638 5.22556 155.609 6.67025 154.241 8.70032L148 17.884V24.1998L151.069 27.6638H140.276L140.069 27.2288H150.155L147.534 24.1998V17.7712L153.897 8.3942L154.897 6.91192C156.678 4.25886 158.379 2.27712 160 0.966702Z" fill="#4E9F3D"/>
</svg>

<svg width="160" height="30" fill="none" xmlns="http://www.w3.org/2000/svg"><path d="M.931 7.605c2.724-1.472 5.655-2.208 8.793-2.208 2.437 0 4.443.495 6.017 1.483 1.587.988 2.38 2.245 2.38 3.77 0 1.246-.518 2.352-1.552 3.319-1.034.956-2.448 1.649-4.241 2.078.793 2.041 1.867 4.028 3.224 5.962 1.367 1.933 2.735 3.415 4.103 4.446l-.258.081a23.424 23.424 0 00-5.035 2.32l-.259.161-.086-.515c-.735-4.157-1.764-7.68-3.086-10.57l-.069-.16c-.793.343-1.856.617-3.19.82l-.138.017v6.026l3.035 3.029H1.655l-.276-.435h8.207l-2.5-2.481v-6.493l.362-.049c1.31-.129 2.408-.37 3.293-.725a2.654 2.654 0 01-.12-.242l-.173-.467a2.703 2.703 0 00-.086-.193c-.713.193-2.057.403-4.034.628l-.19.032v7.186l1.965 1.918H.483l2.241-1.918v-5.413l-.138.016c-.666.14-1.27.295-1.81.467l-.138.049-.155-.323c.506-.182.902-.306 1.19-.37l.913-.21.138-.032v-.838c-.678 0-1.523.14-2.534.42l-.19.064c.023-.15.138-.5.345-1.048.023-.043.103-.284.241-.725l.052-.145c.517.032.92.049 1.207.049.31 0 .598-.017.862-.049V8.41c-.529-.3-1.075-.553-1.638-.757l-.138-.048zm5.207-.42v8.685c.333 0 .65-.027.948-.08V7.863c.632-.162 1.391-.242 2.276-.242 2.241 0 3.764.687 4.569 2.062-.85-.644-1.598-1.085-2.241-1.321-.644-.247-1.414-.37-2.31-.37-.702 0-1.317.064-1.846.193v7.604l.19-.032c2.265-.386 3.943-.993 5.035-1.82 1.103-.838 1.655-1.923 1.655-3.255 0-1.192-.495-2.175-1.483-2.948-.988-.784-2.236-1.177-3.741-1.177-1.207 0-2.224.21-3.052.629zm8.328 9.668c.724 2.212 2.005 4.377 3.844 6.493 1.15 1.321 2.604 2.508 4.362 3.56a28.265 28.265 0 00-7.413 2.997l-.156.097-.344-.258a25.434 25.434 0 017.017-2.964c-3.31-2.063-5.914-5.36-7.81-9.893l-.104-.274c3.517-1.246 5.276-3.147 5.276-5.703 0-1.053-.454-2.202-1.362-3.448 1.16.988 1.741 2.245 1.741 3.77 0 2.47-1.684 4.345-5.051 5.623z" fill="#4E9F3D"/><path d="M38.535 5.671L36.74 7.572l2.828 7.025.69-.354-2.552-6.348 1.828-1.966.448.177-1.742 1.885 2.414 6.01a3.52 3.52 0 00.242-.177l.569-.451c.344-.258.563-.44.655-.548.298 1.224.758 2.32 1.379 3.287a12.68 12.68 0 00-.724-.032c-1.092 0-1.89.16-2.397.483l3.121 7.91 2.586 1.87H37.38l2.38-1.87-1.914-4.704c-1.264 1.192-2.236 2.326-2.914 3.4l-.396-.097c.678-1.053 1.69-2.229 3.034-3.528l.138-.162-.328-.709a14.636 14.636 0 00-3.396 3.706l-.31-.467c-.598-.892-1.363-1.907-2.294-3.045l-.172-.194c-.885 1.837-1.328 3.33-1.328 4.48 0 .676.121 1.25.362 1.724.253.461.851 1.24 1.794 2.336.08.096.206.247.379.45h-9.31l-.345-.434h8.776l-.294-.339c-.758-.859-1.258-1.525-1.5-1.997-.23-.484-.344-1.048-.344-1.692 0-1.096.477-2.728 1.43-4.898l-.758-.741c-.15.343-.34.848-.569 1.514l-.569 1.644c-.31.88-.466 1.61-.466 2.19 0 .602.11 1.102.328 1.5.219.397.678.94 1.38 1.627.068.064.172.166.31.306h-8.62c1.643-.795 2.942-1.864 3.896-3.207.965-1.342 1.92-3.415 2.862-6.219l.069-.225c-.61-.484-1.489-.779-2.638-.886.632-.881 1.12-1.8 1.465-2.755.161.14.259.225.293.257l.776.677c.265.236.58.478.949.725l.31-.709-.207-.161a38.238 38.238 0 00-1.448-1.144l-.155-.113.275-.354c.61.376 1.196.81 1.759 1.305l2.345-6.026-1.828-1.837h7.949zm-4.26 5.172l-1.896 4.673c.104.107.161.171.173.193l.707.741c.379.387.862.988 1.448 1.805l.172.241a14.88 14.88 0 011.759-1.724l-2.362-5.929zM33.5 8.974l-2.741 6.767a22.86 22.86 0 012.258 2.481l.793 1.031c.012.011.07.081.173.21a1.32 1.32 0 00.172-.177l.242-.274c.034-.043.097-.113.19-.21a17.114 17.114 0 00-2.811-3.141l2.207-5.446-.483-1.24zm10.138 4.624c.253.967.885 2.293 1.897 3.98a7.025 7.025 0 00-.432-.049l-1.396-.112a18.332 18.332 0 00-1.38-.08c-.045 0-.16.005-.344.015l2.88 7.138 3.844 3.174h-9.983l-.327-.435h9.155l-3.104-2.562-3.069-7.589c.391-.096.84-.145 1.345-.145.62 0 1.31.049 2.07.145l-.208-.354c-.735-1.268-1.23-2.411-1.483-3.432l.535.306zm6.621-7.927H58c3.287 0 5.626.425 7.017 1.273 1.77 1.064 2.655 2.54 2.655 4.43 0 1.15-.339 2.15-1.017 2.998-.678.848-1.626 1.46-2.845 1.836-1.218.376-3.155.564-5.81.564h-2.12v7.798l2.103 1.773h-8.017l2.396-1.885v-6.461a4.322 4.322 0 00-.293-.016c-.828 0-1.62.166-2.38.5l-.154-.29c.77-.409 1.46-.613 2.068-.613h.621l.138-.016v-.79a5.46 5.46 0 00-.534-.048c-1.23 0-2.213.28-2.949.838l-.172-.242c.701-1.203 1.828-1.804 3.38-1.804h.275V7.62L50.26 5.67zm5.62 1.66v8.072h.224l.449.016c.046 0 .12-.005.224-.016V8.217h1.896c1.472 0 2.506.123 3.104.37.61.237 1.126.736 1.552 1.499a3.325 3.325 0 00-1.604-1.144c-.632-.226-1.529-.338-2.69-.338H57.26v6.799c2.276 0 3.942-.312 5-.935 1.069-.623 1.603-1.6 1.603-2.932 0-1.493-.477-2.578-1.431-3.255-.942-.676-2.465-1.015-4.569-1.015-.54 0-1.201.022-1.983.065zm10.914.064c.701.323 1.264.892 1.69 1.708.425.806.638 1.724.638 2.755 0 2.331-.966 4.007-2.897 5.027-1.46.773-3.954 1.16-7.483 1.16-.586 0-1.08-.01-1.482-.032v6.654l2.706 2.997h-8.637l-.466-.435h8.12l-2.206-2.385v-7.266c1 .054 2.063.08 3.19.08 2.965 0 5.166-.488 6.603-1.466 1.437-.977 2.155-2.476 2.155-4.495 0-.838-.138-1.563-.414-2.175-.276-.623-.781-1.332-1.517-2.127zm22.621-1.724c-.104.183-.173.306-.207.37l-1.172 1.934c-.403.688-.776 1.547-1.121 2.578l-.035.08-.172-.112-.052-.21c-.333-1.224-.81-2.073-1.43-2.545-.61-.473-1.547-.71-2.811-.71-.517 0-1.035.022-1.552.065h-.207v17.465l2.035 1.757h-7.88l2.414-1.885V8.426L76 8.41c-1.184 0-2.029.22-2.534.66-.495.43-.788 1.193-.88 2.289h-.448c.126-1.257.471-2.132 1.034-2.626.575-.495 1.518-.742 2.828-.742l1.034.017h.19v-.79a15.327 15.327 0 00-1.672-.097c-1.483 0-2.552.285-3.207.854-.655.559-1.017 1.51-1.086 2.852h-.207c-.495-1.493-1.259-3.158-2.293-4.995l-.104-.16h20.759zM90.5 6.686c-.793.946-1.626 2.514-2.5 4.705l-.069.161-.38-.306.052-.145c.851-2.223 1.673-3.77 2.466-4.64l.086-.097.345.322zM85.897 9.2c-.886-.537-1.92-.806-3.104-.806-.264 0-.54.016-.828.049l.07 16.192 2.74 3.029h-8.81l-.396-.435h8.259l-2.31-2.465V7.975l.93-.016c1.115 0 1.903.086 2.362.258.472.161.834.489 1.087.983zM104 9.264l-.293-.16c-1.104-.57-2.115-.855-3.035-.855-3.023 0-4.534 2.777-4.534 8.33 0 4.06.937 6.75 2.81 8.072l-.155.161c-1.15-.763-1.971-1.762-2.465-2.997-.483-1.246-.725-2.927-.725-5.043 0-5.961 1.679-8.942 5.035-8.942 1.529 0 2.649.478 3.362 1.434zm-3.69-3.802c2.793 0 5.023.988 6.69 2.964 1.678 1.977 2.517 4.62 2.517 7.927 0 3.126-.827 5.618-2.483 7.476-1.643 1.858-3.856 2.787-6.637 2.787-2.196 0-4.15-.655-5.863-1.965-2.517-1.933-3.775-4.796-3.775-8.588 0-3.243.862-5.821 2.586-7.733 1.724-1.912 4.046-2.868 6.965-2.868zm0 1.385c-3.885 0-5.827 3.19-5.827 9.57 0 5.898 1.914 8.846 5.741 8.846 1.782 0 3.138-.779 4.069-2.336.931-1.568 1.397-3.856 1.397-6.864 0-3.405-.449-5.778-1.345-7.121-.943-1.396-2.288-2.095-4.035-2.095zm5.5-.563c1.644.74 2.943 2.008 3.897 3.802.954 1.794 1.431 3.867 1.431 6.219 0 3.459-.943 6.251-2.828 8.378-1.873 2.127-4.339 3.19-7.396 3.19-1.954 0-3.782-.617-5.483-1.853v-.08c1.425.977 3.213 1.466 5.362 1.466 2.885 0 5.253-1.015 7.104-3.045 1.85-2.03 2.775-4.624 2.775-7.782 0-2.352-.425-4.41-1.275-6.17-.84-1.762-2.035-3.078-3.587-3.948v-.177zm7.673 1.321c2.724-1.472 5.655-2.208 8.793-2.208 2.437 0 4.442.495 6.017 1.483 1.586.988 2.379 2.245 2.379 3.77 0 1.246-.517 2.352-1.551 3.319-1.035.956-2.449 1.649-4.242 2.078.793 2.041 1.868 4.028 3.224 5.962 1.368 1.933 2.736 3.415 4.104 4.446l-.259.081a23.423 23.423 0 00-5.034 2.32l-.259.161-.086-.515c-.736-4.157-1.764-7.68-3.086-10.57l-.069-.16c-.793.343-1.857.617-3.19.82l-.138.017v6.026l3.035 3.029h-8.914l-.276-.435h8.207l-2.5-2.481v-6.493l.362-.049c1.31-.129 2.408-.37 3.293-.725a2.85 2.85 0 01-.121-.242l-.172-.467a2.414 2.414 0 00-.086-.193c-.713.193-2.058.403-4.035.628l-.189.032v7.186l1.965 1.918h-7.621l2.242-1.918v-5.413l-.138.016c-.667.14-1.27.295-1.81.467l-.138.049-.156-.323c.506-.182.903-.306 1.19-.37l.914-.21.138-.032v-.838c-.678 0-1.523.14-2.535.42l-.189.064c.023-.15.138-.5.345-1.048.023-.043.103-.284.241-.725l.052-.145c.517.032.919.049 1.207.049.31 0 .597-.017.862-.049V8.41a10.66 10.66 0 00-1.638-.757l-.138-.048zm5.207-.42v8.685c.333 0 .649-.027.948-.08V7.863c.632-.162 1.391-.242 2.276-.242 2.241 0 3.764.687 4.569 2.062-.851-.644-1.598-1.085-2.242-1.321-.643-.247-1.413-.37-2.31-.37-.701 0-1.316.064-1.845.193v7.604l.19-.032c2.264-.386 3.942-.993 5.034-1.82 1.104-.838 1.656-1.923 1.656-3.255 0-1.192-.495-2.175-1.483-2.948-.989-.784-2.236-1.177-3.742-1.177-1.207 0-2.224.21-3.051.629zm8.327 9.668c.724 2.212 2.006 4.377 3.845 6.493 1.149 1.321 2.604 2.508 4.362 3.56a28.278 28.278 0 00-7.414 2.997l-.155.097-.345-.258a25.443 25.443 0 017.018-2.964c-3.311-2.063-5.914-5.36-7.811-9.893l-.103-.274c3.517-1.246 5.276-3.147 5.276-5.703 0-1.053-.454-2.202-1.362-3.448 1.161.988 1.741 2.245 1.741 3.77 0 2.47-1.684 4.345-5.052 5.623zM159.224 0l.104.129-.173.177c-2.057 1.998-3.753 4.028-5.086 6.09l-1.103 1.676-6.414 9.586V24.2l2.5 2.143h-8.397l2.483-2.143v-6.542L139 11.713l-.897-1.337c-.816-1.192-1.488-2.062-2.017-2.61-.517-.548-1.287-1.198-2.31-1.95l-.19-.145h8.707l-2.138 2.079 5.742 8.088.551-.822-5.12-7.266 1.81-1.611.362.257-1.569 1.354 4.776 6.88 3.862-5.688c1.115-1.654 1.672-2.89 1.672-3.706 0-.687-.488-1.471-1.465-2.352 3.345-.752 6.092-1.681 8.241-2.787l.207-.097zm.776.967v.66l-.172.161a22.598 22.598 0 00-2.5 2.578c-.69.86-1.719 2.304-3.087 4.334L148 17.884V24.2l3.069 3.464h-10.793l-.207-.435h10.086l-2.621-3.03v-6.428l6.363-9.377 1-1.482c1.781-2.653 3.482-4.635 5.103-5.945z" fill="#4E9F3D"/></svg>
